src/components/00-materials/images-raw/Caravan.svg

<svg width="96" height="96" viewBox="0 0 96 96" fill="none" xmlns="http://www.w3.org/2000/svg">
<path d="M15.78 28.73H46.05C46.3051 28.7273 46.5582 28.7753 46.7947 28.8711C47.0312 28.9669 47.2463 29.1086 47.4276 29.2881C47.609 29.4676 47.7529 29.6813 47.8512 29.9167C47.9494 30.1522 48 30.4048 48 30.66V46.4C48 46.994 47.764 47.5638 47.3439 47.9839C46.9238 48.404 46.3541 48.64 45.76 48.64H15.38C14.7116 48.64 14.0707 48.3745 13.5981 47.9019C13.1255 47.4293 12.86 46.7883 12.86 46.12V31.64C12.86 31.257 12.9356 30.8777 13.0824 30.524C13.2293 30.1703 13.4446 29.8491 13.7158 29.5787C13.9871 29.3084 14.3091 29.0942 14.6633 28.9486C15.0175 28.8029 15.397 28.7286 15.78 28.73V28.73ZM55 28.73H67.39C67.9297 28.73 68.4642 28.8363 68.9628 29.0428C69.4615 29.2494 69.9145 29.5521 70.2962 29.9338C70.6778 30.3154 70.9806 30.7685 71.1871 31.2671C71.3937 31.7658 71.5 32.3002 71.5 32.84V59.71H55V28.71V28.73V28.73Z" stroke="#00008F" stroke-width="2" stroke-linecap="round" stroke-linejoin="round"/>
<path d="M41.2 66.7099H85.67V63.7099H93V58.7099H85.67V46.2099C85.67 39.4761 82.995 33.0181 78.2335 28.2565C73.4719 23.495 67.0139 20.8199 60.28 20.8199H14.4C13.4274 20.8199 12.4643 21.0117 11.5658 21.3842C10.6674 21.7567 9.85116 22.3027 9.16388 22.9909C8.47659 23.6791 7.93172 24.4961 7.56043 25.395C7.18913 26.294 6.99869 27.2573 7.00001 28.2299V66.7099H23" stroke="#00008F" stroke-width="2" stroke-linecap="round" stroke-linejoin="round"/>
<path d="M32.02 70.73C34.2292 70.73 36.02 68.9391 36.02 66.73C36.02 64.5208 34.2292 62.73 32.02 62.73C29.8109 62.73 28.02 64.5208 28.02 66.73C28.02 68.9391 29.8109 70.73 32.02 70.73Z" stroke="#00008F" stroke-width="2" stroke-linecap="round" stroke-linejoin="round"/>
<path d="M32.08 75.75C37.0505 75.75 41.08 71.7206 41.08 66.75C41.08 61.7794 37.0505 57.75 32.08 57.75C27.1094 57.75 23.08 61.7794 23.08 66.75C23.08 71.7206 27.1094 75.75 32.08 75.75Z" stroke="#00008F" stroke-width="2" stroke-linecap="round" stroke-linejoin="round"/>
</svg>

<svg width="96" height="96" viewBox="0 0 96 96" fill="none" xmlns="http://www.w3.org/2000/svg"><path d="M15.78 28.73h30.27A1.93 1.93 0 0148 30.66V46.4a2.24 2.24 0 01-2.24 2.24H15.38a2.52 2.52 0 01-2.52-2.52V31.64a2.912 2.912 0 012.92-2.91v0zm39.22 0h12.39a4.11 4.11 0 014.11 4.11v26.87H55v-31 .02z" stroke="#00008F" stroke-width="2" stroke-linecap="round" stroke-linejoin="round"/><path d="M41.2 66.71h44.47v-3H93v-5h-7.33v-12.5a25.39 25.39 0 00-25.39-25.39H14.4A7.4 7.4 0 007 28.23v38.48h16" stroke="#00008F" stroke-width="2" stroke-linecap="round" stroke-linejoin="round"/><path d="M32.02 70.73a4 4 0 100-8 4 4 0 000 8z" stroke="#00008F" stroke-width="2" stroke-linecap="round" stroke-linejoin="round"/><path d="M32.08 75.75a9 9 0 100-18 9 9 0 000 18z" stroke="#00008F" stroke-width="2" stroke-linecap="round" stroke-linejoin="round"/></svg>
